packages/storefront-lwc/src/assets/fonts/flags/1x1/nz.svg

<svg height="512" width="512" xmlns="http://www.w3.org/2000/svg" xmlns:xlink="http://www.w3.org/1999/xlink"><defs><g id="a"><g id="b"><path d="m0 0v.5l1-.5z" transform="translate(0 -.325)"/><path d="m0 0v-.5l1 .5z" transform="matrix(.80901699 -.58778525 .58778525 .80901699 .190713 .262953)"/></g><use transform="scale(-1 1)" xlink:href="#b"/><use transform="matrix(.30901699 .95105652 -.95105652 .30901699 0 0)" xlink:href="#b"/><use transform="matrix(.30901699 -.95105652 .95105652 .30901699 0 0)" xlink:href="#b"/><use transform="matrix(-.30901699 .95105652 .95105652 .30901699 0 0)" xlink:href="#b"/></g><clipPath id="c"><path d="m0 0h600v300h-600z"/></clipPath><clipPath id="d"><path d="m0 0 300 150h-300zm300 0h300l-300 150zm0 150h300v150zm0 0v150h-300z"/></clipPath></defs><path d="m.004 0h512v512h-512z" fill="#00247d" fill-rule="evenodd"/><g transform="matrix(.60566 0 0 .60566 -148.654 134.473)"><use fill="#fff" height="100%" transform="matrix(45.4 0 0 45.4 900 120)" width="100%" xlink:href="#a"/><use fill="#cc142b" height="100%" transform="matrix(30 0 0 30 900 120)" width="100%" xlink:href="#a"/></g><g transform="matrix(.08429158 .59976576 -.59976576 .08429158 464.522529 -280.188042)"><use fill="#fff" height="100%" transform="matrix(5.62259328 -40.00682998 40.00682998 5.62259328 900.000125 119.99971)" width="100%" xlink:href="#a"/><use fill="#cc142b" height="100%" transform="matrix(3.47932752 -24.75670172 24.75670172 3.47932752 900.000125 119.99971)" width="100%" xlink:href="#a"/></g><g transform="matrix(.08429158 .59976576 -.59976576 .08429158 464.522529 -280.188042)"><use fill="#fff" height="100%" transform="matrix(6.31845878 -44.95817032 44.95817032 6.31845878 900.000217 379.999816)" width="100%" xlink:href="#a"/><use fill="#cc142b" height="100%" transform="matrix(4.17519303 -29.70804206 29.70804206 4.17519303 900.000217 379.999816)" width="100%" xlink:href="#a"/></g><g transform="matrix(.60566 0 0 .60566 -148.654 134.473)"><use fill="#fff" height="100%" transform="matrix(50.4 0 0 50.4 900 480)" width="100%" xlink:href="#a"/><use fill="#cc142b" height="100%" transform="matrix(35 0 0 35 900 480)" width="100%" xlink:href="#a"/></g><path clip-path="url(#c)" d="m0 0 600 300m-600 0 600-300" stroke="#fff" stroke-width="60" transform="matrix(.52004 0 0 .78924 .002 0)"/><path clip-path="url(#d)" d="m0 0 600 300m-600 0 600-300" stroke="#cc142b" stroke-width="40" transform="matrix(.52004 0 0 .78924 .002 0)"/><path clip-path="url(#c)" d="m125.674-.004v88.049h-125.734v60.682h125.733v88.046h60.681v-88.046h125.733v-60.682h-125.732v-88.049z" fill="#fff"/><path d="m137.81.002v100.18h-137.868v36.408h137.87v100.18h36.408v-100.18h137.869v-36.408h-137.87v-100.18h-36.407z" fill="#cc142b"/></svg>

<svg xmlns="http://www.w3.org/2000/svg" xmlns:xlink="http://www.w3.org/1999/xlink" height="512" width="512" id="flag-icon-css-nz">
  <defs>
    <g id="b">
      <g id="a">
        <path transform="translate(0 -.325)" d="M0 0v.5L1 0z"/>
        <path d="M0 0v-.5L1 0z" transform="rotate(-36 .5 -.162)"/>
      </g>
      <use xlink:href="#a" transform="scale(-1 1)"/>
      <use xlink:href="#a" transform="rotate(72 0 0)"/>
      <use xlink:href="#a" transform="rotate(-72 0 0)"/>
      <use xlink:href="#a" transform="scale(-1 1) rotate(72)"/>
    </g>
    <clipPath id="c">
      <path d="M0 0h600v300H0z"/>
    </clipPath>
    <clipPath id="d">
      <path d="M0 0l300 150H0zm300 0h300L300 150zm0 150h300v150zm0 0v150H0z"/>
    </clipPath>
  </defs>
  <path fill-rule="evenodd" fill="#00247d" d="M.004 0h512v512h-512z"/>
  <g transform="translate(-148.654 134.473) scale(.60566)">
    <use fill="#fff" height="100%" width="100%" xlink:href="#b" transform="matrix(45.4 0 0 45.4 900 120)"/>
    <use fill="#cc142b" height="100%" width="100%" xlink:href="#b" transform="matrix(30 0 0 30 900 120)"/>
  </g>
  <g transform="rotate(82 393.421 127.092) scale(.60566)">
    <use fill="#fff" height="100%" width="100%" xlink:href="#b" transform="rotate(-82 519.022 -457.666) scale(40.4)"/>
    <use fill="#cc142b" height="100%" width="100%" xlink:href="#b" transform="rotate(-82 519.022 -457.666) scale(25)"/>
  </g>
  <g transform="rotate(82 393.421 127.092) scale(.60566)">
    <use fill="#fff" height="100%" width="100%" xlink:href="#b" transform="rotate(-82 668.57 -327.666) scale(45.4)"/>
    <use fill="#cc142b" height="100%" width="100%" xlink:href="#b" transform="rotate(-82 668.57 -327.666) scale(30)"/>
  </g>
  <g transform="translate(-148.654 134.473) scale(.60566)">
    <use fill="#fff" height="100%" width="100%" xlink:href="#b" transform="matrix(50.4 0 0 50.4 900 480)"/>
    <use fill="#cc142b" height="100%" width="100%" xlink:href="#b" transform="matrix(35 0 0 35 900 480)"/>
  </g>
  <path transform="matrix(.52004 0 0 .78924 .002 0)" d="M0 0l600 300M0 300L600 0" clip-path="url(#c)" stroke="#fff" stroke-width="60"/>
  <path transform="matrix(.52004 0 0 .78924 .002 0)" d="M0 0l600 300M0 300L600 0" clip-path="url(#d)" stroke="#cc142b" stroke-width="40"/>
  <path style="line-height:normal;text-indent:0;text-align:start;text-decoration-line:none;text-decoration-style:solid;text-decoration-color:#000;text-transform:none;block-progression:tb;isolation:auto;mix-blend-mode:normal" clip-path="url(#c)" d="M125.674-.004v88.049H-.06v60.682h125.733v88.046h60.681v-88.046h125.733V88.045H186.355V-.004h-60.681z" color="#000" font-weight="400" font-family="sans-serif" white-space="normal" overflow="visible" fill="#fff"/>
  <path style="line-height:normal;text-indent:0;text-align:start;text-decoration-line:none;text-decoration-style:solid;text-decoration-color:#000;text-transform:none;block-progression:tb;isolation:auto;mix-blend-mode:normal" d="M137.81.002v100.18H-.058v36.408h137.87v100.18h36.408V136.59h137.869v-36.408h-137.87V.002h-36.407z" color="#000" font-weight="400" font-family="sans-serif" white-space="normal" overflow="visible" fill="#cc142b"/>
</svg>
